svg/Mapbox-maki/clothing-store-12.svg

<svg xmlns="http://www.w3.org/2000/svg" viewBox="0 0 12 12"><g fill="#444"><path d="m4 1l-1 1-1 2v1h2v5h5v-5h2v-1l-1-2-1-1h-1v.75c0 .5-.5 1.25-1.5 1.25-1 0-1.5-.75-1.5-1.25v-.75z" opacity=".3" stroke="#fff" stroke-linejoin="round" stroke-linecap="round" stroke-width="2"/><path d="m4 1l-1 1-1 2v1h2v5h5v-5h2v-1l-1-2-1-1h-1v.75c0 .5-.5 1.25-1.5 1.25-1 0-1.5-.75-1.5-1.25v-.75z"/></g></svg>

<?xml version="1.0" encoding="UTF-8" standalone="no"?>
<!-- Created with Inkscape (http://www.inkscape.org/) -->

<svg
   xmlns:dc="http://purl.org/dc/elements/1.1/"
   xmlns:cc="http://creativecommons.org/ns#"
   xmlns:rdf="http://www.w3.org/1999/02/22-rdf-syntax-ns#"
   xmlns:svg="http://www.w3.org/2000/svg"
   xmlns="http://www.w3.org/2000/svg"
   xmlns:sodipodi="http://sodipodi.sourceforge.net/DTD/sodipodi-0.dtd"
   xmlns:inkscape="http://www.inkscape.org/namespaces/inkscape"
   width="12"
   height="12"
   id="svg4764"
   version="1.1"
   inkscape:version="0.48.4 r9939"
   sodipodi:docname="clothing-store-12.svg">
  <defs
     id="defs4766" />
  <sodipodi:namedview
     id="base"
     pagecolor="#ffffff"
     bordercolor="#666666"
     borderopacity="1.0"
     inkscape:pageopacity="0.0"
     inkscape:pageshadow="2"
     inkscape:zoom="32"
     inkscape:cx="8.5088593"
     inkscape:cy="7.4360095"
     inkscape:document-units="px"
     inkscape:current-layer="g3075"
     showgrid="true"
     showguides="false"
     inkscape:guide-bbox="true"
     inkscape:window-width="1920"
     inkscape:window-height="1053"
     inkscape:window-x="0"
     inkscape:window-y="27"
     inkscape:window-maximized="1"
     inkscape:showpageshadow="true"
     showborder="true"
     borderlayer="true"
     inkscape:object-nodes="true"
     inkscape:object-paths="true">
    <inkscape:grid
       type="xygrid"
       id="grid4772"
       empspacing="2"
       visible="true"
       enabled="true"
       snapvisiblegridlinesonly="true"
       spacingx="0.5px"
       spacingy="0.5px"
       empcolor="#0000ff"
       empopacity="0.4627451" />
    <sodipodi:guide
       orientation="0,1"
       position="2,12"
       id="guide4789" />
    <sodipodi:guide
       orientation="1,0"
       position="12,10"
       id="guide4791" />
    <sodipodi:guide
       orientation="0,1"
       position="10,0"
       id="guide4793" />
    <sodipodi:guide
       orientation="1,0"
       position="0,9"
       id="guide4795" />
    <sodipodi:guide
       orientation="0,1"
       position="5,11"
       id="guide4797" />
    <sodipodi:guide
       orientation="1,0"
       position="11,7"
       id="guide4799" />
    <sodipodi:guide
       orientation="0,1"
       position="9,2"
       id="guide4801" />
    <sodipodi:guide
       orientation="1,0"
       position="2,5"
       id="guide4803" />
  </sodipodi:namedview>
  <metadata
     id="metadata4769">
    <rdf:RDF>
      <cc:Work
         rdf:about="">
        <dc:format>image/svg+xml</dc:format>
        <dc:type
           rdf:resource="http://purl.org/dc/dcmitype/StillImage" />
        <dc:title />
      </cc:Work>
    </rdf:RDF>
  </metadata>
  <g
     inkscape:label="Layer 1"
     inkscape:groupmode="layer"
     id="layer1"
     transform="translate(0,-1040.3622)"
     style="display:inline">
    <g
       id="g3075">
      <path
         sodipodi:nodetypes="cccccccccccccccccc"
         inkscape:connector-curvature="0"
         style="fill:#444444;fill-opacity:1;stroke:#ffffff;stroke-linecap:round;stroke-linejoin:round;opacity:0.29999999999999999;stroke-width:2;stroke-miterlimit:4;stroke-dasharray:none"
         d="M 4,1 3,2 2,4 2,5 4,5 4,10 9,10 9,5 11,5 11,4 10,2 9,1 8,1 8,1.75 C 8,2.25 7.5,3 6.5,3 5.5,3 5,2.25 5,1.75 L 5,1 z"
         transform="translate(0,1040.3622)"
         id="path4668" />
      <path
         id="rect3131"
         transform="translate(0,1040.3622)"
         d="M 4,1 3,2 2,4 2,5 4,5 4,10 9,10 9,5 11,5 11,4 10,2 9,1 8,1 8,1.75 C 8,2.25 7.5,3 6.5,3 5.5,3 5,2.25 5,1.75 L 5,1 z"
         style="fill:#444444;fill-opacity:1;stroke:none"
         inkscape:connector-curvature="0"
         sodipodi:nodetypes="cccccccccccccccccc" />
    </g>
  </g>
</svg>
